_includes/icons/color-operating-system.svg

<svg fill="#666" height="50" viewBox="0 0 48 48" width="50" xmlns="http://www.w3.org/2000/svg"><path d="m44 24c0 11.044-8.956 20-20 20s-20-8.956-20-20 8.956-20 20-20 20 8.956 20 20z" fill="#2196f3"/><path d="m23 25.398c0 2.102-.5 3.703-1.5 4.902s-2.301 1.7-4 1.7-3.102-.602-4-1.699c-.898-1.102-1.5-2.801-1.5-4.801v-2.699c0-2.102.5-3.801 1.5-5s2.301-1.801 4-1.801 3 .602 4 1.801 1.5 2.801 1.5 5zm-3.102-2.597c0-1.402-.199-2.402-.598-3.102-.402-.699-1-1-1.801-1s-1.398.301-1.801 1c-.398.699-.598 1.699-.598 3v2.801c0 1.398.199 2.398.598 3 .402.602 1 1 1.801 1s1.398-.301 1.801-.898c.399-.602.598-1.602.598-2.903zm12.704 4.898c0-.598-.203-1.098-.5-1.398-.301-.301-1-.699-1.902-1-1.7-.602-2.899-1.301-3.598-2.102-.704-.801-1.102-1.699-1.102-2.801 0-1.297.5-2.398 1.5-3.199s2.301-1.199 3.801-1.199c1 0 1.898.199 2.801.602.797.398 1.398 1 1.898 1.699.398.699.699 1.598.699 2.5h-3.398c0-.699-.199-1.301-.5-1.699-.301-.403-.801-.602-1.403-.602-.598 0-1.098.199-1.398.5s-.5.801-.5 1.301c0 .398.199.801.602 1.199.398.301 1 .699 2 1.102 1.598.5 2.797 1.199 3.598 2 .801.797 1.102 1.797 1.102 3 0 1.398-.5 2.398-1.402 3.199-.898.801-2.199 1.098-3.797 1.098-1.102 0-2.102-.199-3-.598-.902-.402-1.602-1-2.102-1.801s-.801-1.699-.801-2.699h3.402c0 .898.199 1.598.598 2 .402.398 1 .598 1.801.598.999-.001 1.601-.501 1.601-1.7z" fill="#e3f2fd"/></svg>

<svg xmlns="http://www.w3.org/2000/svg" viewBox="0 0 48 48" width="50" height="50" fill="#666"><path d="M44,24c0,11.044-8.956,20-20,20S4,35.044,4,24S12.956,4,24,4S44,12.956,44,24z" fill="#2196f3"/><path d="M23,25.398c0,2.102-0.5,3.703-1.5,4.902S19.199,32,17.5,32s-3.102-0.602-4-1.699 C12.602,29.199,12,27.5,12,25.5v-2.699c0-2.102,0.5-3.801,1.5-5S15.801,16,17.5,16s3,0.602,4,1.801s1.5,2.801,1.5,5V25.398z M19.898,22.801c0-1.402-0.199-2.402-0.598-3.102c-0.402-0.699-1-1-1.801-1s-1.398,0.301-1.801,1c-0.398,0.699-0.598,1.699-0.598,3 V25.5c0,1.398,0.199,2.398,0.598,3c0.402,0.602,1,1,1.801,1s1.398-0.301,1.801-0.898C19.699,28,19.898,27,19.898,25.699V22.801z M32.602,27.699c0-0.598-0.203-1.098-0.5-1.398c-0.301-0.301-1-0.699-1.902-1C28.5,24.699,27.301,24,26.602,23.199 C25.898,22.398,25.5,21.5,25.5,20.398c0-1.297,0.5-2.398,1.5-3.199S29.301,16,30.801,16c1,0,1.898,0.199,2.801,0.602 c0.797,0.398,1.398,1,1.898,1.699c0.398,0.699,0.699,1.598,0.699,2.5h-3.398c0-0.699-0.199-1.301-0.5-1.699 C32,18.699,31.5,18.5,30.898,18.5c-0.598,0-1.098,0.199-1.398,0.5S29,19.801,29,20.301c0,0.398,0.199,0.801,0.602,1.199 c0.398,0.301,1,0.699,2,1.102c1.598,0.5,2.797,1.199,3.598,2c0.801,0.797,1.102,1.797,1.102,3c0,1.398-0.5,2.398-1.402,3.199 c-0.898,0.801-2.199,1.098-3.797,1.098c-1.102,0-2.102-0.199-3-0.598c-0.902-0.402-1.602-1-2.102-1.801s-0.801-1.699-0.801-2.699 h3.402c0,0.898,0.199,1.598,0.598,2c0.402,0.398,1,0.598,1.801,0.598C32,29.398,32.602,28.898,32.602,27.699z" fill="#e3f2fd"/></svg>
